icons/Phone directory_filled.svg

<svg width="24" height="24" viewBox="0 0 24 24" fill="none" xmlns="http://www.w3.org/2000/svg">
<path fill-rule="evenodd" clip-rule="evenodd" d="M4.25,5c0,-1.51878 1.23122,-2.75 2.75,-2.75h10c1.5188,0 2.75,1.23122 2.75,2.75v14c0,1.5188 -1.2312,2.75 -2.75,2.75h-10c-1.51878,0 -2.75,-1.2312 -2.75,-2.75v-1.25h-1.24988c-0.41421,0 -0.75,-0.3358 -0.75,-0.75c0,-0.4142 0.33579,-0.75 0.75,-0.75h1.24988v-3.5h-1.24988c-0.41421,0 -0.75,-0.3358 -0.75,-0.75c0,-0.4142 0.33579,-0.75 0.75,-0.75h1.24988v-3.5h-1.24988c-0.41421,0 -0.75,-0.33579 -0.75,-0.75c0,-0.41421 0.33579,-0.75 0.75,-0.75h1.24988zM8.99408,8.91078c-0.15628,0.15629 -0.24408,0.36825 -0.24408,0.58926c0.09877,1.62526 0.78896,3.15826 1.9403,4.30966c1.1514,1.1514 2.6844,1.8416 4.3097,1.9403c0.221,0 0.433,-0.0878 0.5893,-0.244c0.1562,-0.1563 0.244,-0.3683 0.244,-0.5893v-1.1025c0,-0.3407 -0.2074,-0.6471 -0.5238,-0.7737l-0.9006,-0.3602c-0.3797,-0.1519 -0.8136,-0.0058 -1.024,0.345l-0.2599,0.4331c-0.9048,-0.4463 -1.6371,-1.1786 -2.0833,-2.0834l0.4331,-0.2598c0.3507,-0.2105 0.4969,-0.6443 0.345,-1.0241l-0.3603,-0.90055c-0.1265,-0.31638 -0.4329,-0.52384 -0.7737,-0.52384h-1.10247c-0.22101,0 -0.43297,0.08779 -0.58925,0.24407z" fill="#002B51"/>
</svg>

<svg width="24" height="24" viewBox="0 0 24 24" fill="none" xmlns="http://www.w3.org/2000/svg">
<path fill-rule="evenodd" clip-rule="evenodd" d="M4.25 5C4.25 3.48122 5.48122 2.25 7 2.25H17C18.5188 2.25 19.75 3.48122 19.75 5V19C19.75 20.5188 18.5188 21.75 17 21.75H7C5.48122 21.75 4.25 20.5188 4.25 19V17.75H3.00012C2.58591 17.75 2.25012 17.4142 2.25012 17C2.25012 16.5858 2.58591 16.25 3.00012 16.25H4.25V12.75H3.00012C2.58591 12.75 2.25012 12.4142 2.25012 12C2.25012 11.5858 2.58591 11.25 3.00012 11.25H4.25V7.75H3.00012C2.58591 7.75 2.25012 7.41421 2.25012 7C2.25012 6.58579 2.58591 6.25 3.00012 6.25H4.25V5ZM9.58333 8.66671H10.6858C11.0266 8.66671 11.333 8.87417 11.4595 9.19055L11.8198 10.0911C11.9717 10.4709 11.8255 10.9047 11.4748 11.1152L11.0417 11.375C11.4879 12.2798 12.2202 13.0121 13.125 13.4584L13.3849 13.0253C13.5953 12.6745 14.0292 12.5284 14.4089 12.6803L15.3095 13.0405C15.6259 13.1671 15.8333 13.4735 15.8333 13.8142V14.9167C15.8333 15.1377 15.7455 15.3497 15.5893 15.506C15.433 15.6622 15.221 15.75 15 15.75C13.3747 15.6513 11.8417 14.9611 10.6903 13.8097C9.53896 12.6583 8.84877 11.1253 8.75 9.50004C8.75 9.27903 8.8378 9.06707 8.99408 8.91078C9.15036 8.7545 9.36232 8.66671 9.58333 8.66671Z" fill="#002B51"/>
</svg>
